X:366
T:Bundle and Go
R:jig
H:See also #192
D:Sharon Shannon
Z:id:hn-jig-366
M:6/8
K:Edor
B,EE EDB,|~G3 GAB|~A3 AGA|d3 d2e|
dBG GAB|AFE DEF|G2E FED|1 ~E3 E2D:|2 ~E3 E2A||
|:Bee edB|d3 def|~e3 edB|d3 d2e|
dBG GAB|AFE DEF|G2E FED|1 ~E3 E2A:|2 ~E3 E2D||

